assets/images/landing/landing-logo.svg

<svg width="24" height="24" viewBox="0 0 24 24" fill="none" xmlns="http://www.w3.org/2000/svg">
<g clip-path="url(#clip0_106_34625)">
<path fill-rule="evenodd" clip-rule="evenodd" d="M17.262 10.0581L12.4513 18.8401C14.3523 22.2078 15.9036 23.3903 18.9512 23.27C21.9358 23.1521 25.3719 19.0921 23.4369 15.6179L18.619 7.0753C18.4467 7.65027 17.4396 9.68849 17.2619 10.0581L17.262 10.0581ZM10.1434 20.6543C4.8786 27.3598 -2.71675 19.959 0.977333 14.1981C0.977333 14.1981 4.90991 7.3063 6.43925 4.62135C7.62519 2.53926 8.95382 1.22901 10.6813 0.809006C12.7879 0.29685 15.2547 1.4106 16.5697 3.44183C17.4837 4.85338 18.2925 6.1454 16.8671 8.5858C16.6977 8.87568 10.4768 20.2296 10.1434 20.6542V20.6543ZM10.5191 8.2514C9.08019 7.4219 9.08019 5.33685 10.5191 4.50735C11.9579 3.67785 13.7662 4.72035 13.7662 6.37935C13.7662 8.03835 11.9579 9.0809 10.5191 8.2514Z" fill="#5FD788"/>
</g>
<defs>
<clipPath id="clip0_106_34625">
<rect width="24" height="24" fill="white"/>
</clipPath>
</defs>
</svg>

<svg width="24" height="24" fill="none" xmlns="http://www.w3.org/2000/svg"><g clip-path="url(#a)"><path fill-rule="evenodd" clip-rule="evenodd" d="m17.262 10.058-4.81 8.782c1.9 3.368 3.452 4.55 6.5 4.43 2.984-.118 6.42-4.178 4.485-7.652l-4.818-8.543c-.172.575-1.18 2.613-1.357 2.983zm-7.119 10.596C4.88 27.36-2.717 19.96.977 14.198c0 0 3.933-6.892 5.462-9.577C7.625 2.54 8.954 1.23 10.681.81c2.107-.512 4.574.602 5.889 2.633.914 1.411 1.723 2.703.297 5.144-.17.29-6.39 11.644-6.724 12.068zm.376-12.403c-1.439-.83-1.439-2.914 0-3.744 1.439-.83 3.247.213 3.247 1.872 0 1.66-1.808 2.702-3.247 1.872z" fill="#5FD788"/></g><defs><clipPath id="a"><path fill="#fff" d="M0 0h24v24H0z"/></clipPath></defs></svg>
